src/lib/images/logo/hydro-logo.svg

<svg fill="none" viewBox="0 0 2561 490" xmlns="http://www.w3.org/2000/svg" xmlns:xlink="http://www.w3.org/1999/xlink"><filter id="a" color-interpolation-filters="sRGB" filterUnits="userSpaceOnUse" height="690" width="2211.86" x="-100" y="-100"><feFlood flood-opacity="0" result="BackgroundImageFix"/><feGaussianBlur in="BackgroundImageFix" stdDeviation="50"/><feComposite in2="SourceAlpha" operator="in" result="effect1_backgroundBlur_47_473"/><feBlend in="SourceGraphic" in2="effect1_backgroundBlur_47_473" mode="normal" result="shape"/></filter><filter id="b" color-interpolation-filters="sRGB" filterUnits="userSpaceOnUse" height="690" width="690" x="1970.26" y="-100"><feFlood flood-opacity="0" result="BackgroundImageFix"/><feGaussianBlur in="BackgroundImageFix" stdDeviation="50"/><feComposite in2="SourceAlpha" operator="in" result="effect1_backgroundBlur_47_473"/><feBlend in="SourceGraphic" in2="effect1_backgroundBlur_47_473" mode="normal" result="shape"/></filter><g fill="#fff" filter="url(#a)"><path d="m344.4 20c0-11.0457 8.954-20 20-20h51c11.046 0 20 8.9543 20 20v450c0 11.046-8.954 20-20 20h-51c-11.046 0-20-8.954-20-20zm-253.4 450c0 11.046-8.9543 20-20 20h-51c-11.0457 0-20-8.954-20-20v-450c0-11.0457 8.95431-20 20-20h51c11.0457 0 20 8.9543 20 20zm260.4-210c0 11.046-8.954 20-20 20h-228.1c-11.0457 0-20-8.954-20-20v-37.7c0-11.046 8.9543-20 20-20h228.1c11.046 0 20 8.954 20 20z"/><path d="m707.099 490c-11.045 0-20-8.954-20-20v-152.534c0-4.202 5.85-5.23 7.282-1.279 1.546 4.264-4.394 7.102-6.741 3.22l-174.701-289.0621c-8.056-13.3293 1.542-30.3449 17.117-30.3449h50.543c7.013 0 13.513 3.67253 17.132 9.679l150.91 250.486c6.18 10.259-1.208 23.335-13.184 23.335-12.001 0-19.386-13.125-13.155-23.382l152.156-250.50085c3.627-5.97133 10.107-9.61715 17.093-9.61715h42.892c15.574 0 25.172 17.0156 17.117 30.3449l-173.99 287.8831c-2.306 3.817-8.14.99-6.574-3.185 1.434-3.824 7.103-2.796 7.103 1.288v153.669c0 11.046-8.954 20-20 20z"/><path d="m1043.34 490c-11.05 0-20-8.954-20-20v-450c0-11.0457 8.95-20 20-20h194.2c53.2 0 99.87 10.2667 140 30.8s71.4 49 93.8 85.4 33.6 79.333 33.6 128.8c0 49-11.2 91.933-33.6 128.8-22.4 36.4-53.67 64.867-93.8 85.4s-86.8 30.8-140 30.8zm71-97c0 11.046 8.95 20 20 20h99c36.87 0 68.6-7 95.2-21 27.07-14 47.83-33.6 62.3-58.8 14.93-25.2 22.4-54.6 22.4-88.2 0-34.067-7.47-63.467-22.4-88.2-14.47-25.2-35.23-44.8-62.3-58.8-26.6-14-58.33-21-95.2-21h-99c-11.05 0-20 8.9543-20 20z"/><path d="m1621.66 490c-11.05 0-20-8.954-20-20v-450c0-11.0457 8.95-20 20-20h181.6c43.4 0 80.5 7.00001 111.3 21 31.27 14 55.3 34.0667 72.1 60.2 16.8 26.133 25.2 57.167 25.2 93.1s-8.4 66.967-25.2 93.1c-16.8 25.667-40.83 45.5-72.1 59.5-30.8 13.533-67.9 20.3-111.3 20.3h-122.59c-10.64 0-16.01-12.816-8.56-20.4 7.53-7.655 20.55-2.327 20.55 8.407v134.793c0 11.046-8.95 20-20 20zm311.04 0c-6.54 0-12.67-3.199-16.41-8.565l-96.02-137.8c-9.24-13.26.24-31.435 16.4-31.435h48.58c6.53 0 12.64 3.181 16.38 8.522l96.57 137.8c9.29 13.255-.19 31.478-16.38 31.478zm-240.04-205.415c0 11.143-13.64 16.53-21.26 8.393-7.34-7.85-1.77-20.678 8.98-20.678h118.68c40.13 0 70.23-8.633 90.3-25.9 20.53-17.267 30.8-41.3 30.8-72.1 0-31.267-10.27-55.3-30.8-72.1-20.07-16.8-50.17-25.2-90.3-25.2h-118.87c-10.82 0-16.5-12.829-9.24-20.8439 7.66-8.4529 21.71-3.0337 21.71 8.3739z"/></g><g filter="url(#b)"><path d="m2315.26 490c-48.46 0-95.83-14.369-136.12-41.29s-71.69-65.185-90.23-109.953c-18.55-44.767-23.4-94.029-13.94-141.554 9.45-47.525 32.78-91.18 67.05-125.4441 34.26-34.2638 77.92-57.5978 125.44-67.05118 47.53-9.45338 96.79-4.601564 141.56 13.94188 44.76 18.5435 83.03 49.9457 109.95 90.2354 26.92 40.29 41.29 87.659 41.29 136.115 0 64.978-25.81 127.295-71.76 173.241-45.95 45.947-108.26 71.759-173.24 71.759zm0-85.221c67.66 0 122.5-57.487 122.5-128.419 0-39.67-28.75-93.4-86.24-161.19-7.33-8.69-19.42-22.2528-36.26-40.6899-17.73 19.404-30.44 33.6659-38.12 42.7869-56.26 66.862-84.38 119.893-84.38 159.093 0 70.932 54.84 128.419 122.5 128.419z" fill="#fff"/></g></svg>

<svg viewBox="0 0 2561 490" fill="none" xmlns="http://www.w3.org/2000/svg">
					<g filter="url(#filter0_b_47_473)">
					<path d="M344.4 20C344.4 8.9543 353.354 0 364.4 0H415.4C426.446 0 435.4 8.9543 435.4 20V470C435.4 481.046 426.446 490 415.4 490H364.4C353.354 490 344.4 481.046 344.4 470V20ZM91 470C91 481.046 82.0457 490 71 490H20C8.9543 490 0 481.046 0 470V20C0 8.9543 8.95431 0 20 0H71C82.0457 0 91 8.9543 91 20V470ZM351.4 260C351.4 271.046 342.446 280 331.4 280H103.3C92.2543 280 83.3 271.046 83.3 260V222.3C83.3 211.254 92.2543 202.3 103.3 202.3H331.4C342.446 202.3 351.4 211.254 351.4 222.3V260Z" fill="#fff" class="svg-elem-1"></path>
					<path d="M707.099 490C696.054 490 687.099 481.046 687.099 470V317.466C687.099 313.264 692.949 312.236 694.381 316.187V316.187C695.927 320.451 689.987 323.289 687.64 319.407L512.939 30.3449C504.883 17.0156 514.481 0 530.056 0H580.599C587.612 0 594.112 3.67253 597.731 9.679L748.641 260.165C754.821 270.424 747.433 283.5 735.457 283.5V283.5C723.456 283.5 716.071 270.375 722.302 260.118L874.458 9.61715C878.085 3.64582 884.565 0 891.551 0H934.443C950.017 0 959.615 17.0156 951.56 30.3449L777.57 318.228C775.264 322.045 769.43 319.218 770.996 315.043V315.043C772.43 311.219 778.099 312.247 778.099 316.331V470C778.099 481.046 769.145 490 758.099 490H707.099Z" fill="#fff" class="svg-elem-2"></path>
					<path d="M1043.34 490C1032.29 490 1023.34 481.046 1023.34 470V20C1023.34 8.9543 1032.29 0 1043.34 0H1237.54C1290.74 0 1337.41 10.2667 1377.54 30.8C1417.67 51.3333 1448.94 79.8 1471.34 116.2C1493.74 152.6 1504.94 195.533 1504.94 245C1504.94 294 1493.74 336.933 1471.34 373.8C1448.94 410.2 1417.67 438.667 1377.54 459.2C1337.41 479.733 1290.74 490 1237.54 490H1043.34ZM1114.34 393C1114.34 404.046 1123.29 413 1134.34 413H1233.34C1270.21 413 1301.94 406 1328.54 392C1355.61 378 1376.37 358.4 1390.84 333.2C1405.77 308 1413.24 278.6 1413.24 245C1413.24 210.933 1405.77 181.533 1390.84 156.8C1376.37 131.6 1355.61 112 1328.54 98C1301.94 84 1270.21 77 1233.34 77H1134.34C1123.29 77 1114.34 85.9543 1114.34 97V393Z" fill="#fff" class="svg-elem-3"></path>
					<path d="M1621.66 490C1610.61 490 1601.66 481.046 1601.66 470V20C1601.66 8.9543 1610.61 0 1621.66 0H1803.26C1846.66 0 1883.76 7.00001 1914.56 21C1945.83 35 1969.86 55.0667 1986.66 81.2C2003.46 107.333 2011.86 138.367 2011.86 174.3C2011.86 210.233 2003.46 241.267 1986.66 267.4C1969.86 293.067 1945.83 312.9 1914.56 326.9C1883.76 340.433 1846.66 347.2 1803.26 347.2H1680.67C1670.03 347.2 1664.66 334.384 1672.11 326.8V326.8C1679.64 319.145 1692.66 324.473 1692.66 335.207V470C1692.66 481.046 1683.71 490 1672.66 490H1621.66ZM1932.7 490C1926.16 490 1920.03 486.801 1916.29 481.435L1820.27 343.635C1811.03 330.375 1820.51 312.2 1836.67 312.2H1885.25C1891.78 312.2 1897.89 315.381 1901.63 320.722L1998.2 458.522C2007.49 471.777 1998.01 490 1981.82 490H1932.7ZM1692.66 284.585C1692.66 295.728 1679.02 301.115 1671.4 292.978V292.978C1664.06 285.128 1669.63 272.3 1680.38 272.3H1799.06C1839.19 272.3 1869.29 263.667 1889.36 246.4C1909.89 229.133 1920.16 205.1 1920.16 174.3C1920.16 143.033 1909.89 119 1889.36 102.2C1869.29 85.4 1839.19 77 1799.06 77H1680.19C1669.37 77 1663.69 64.171 1670.95 56.1561V56.1561C1678.61 47.7032 1692.66 53.1224 1692.66 64.53V284.585Z" fill="#fff" class="svg-elem-4"></path>
					</g>
					<g filter="url(#filter1_b_47_473)">
					<path d="M2315.26 490C2266.8 490 2219.43 475.631 2179.14 448.71C2138.85 421.789 2107.45 383.525 2088.91 338.757C2070.36 293.99 2065.51 244.728 2074.97 197.203C2084.42 149.678 2107.75 106.023 2142.02 71.7589C2176.28 37.4951 2219.94 14.1611 2267.46 4.70772C2314.99 -4.74566 2364.25 0.106156 2409.02 18.6496C2453.78 37.1931 2492.05 68.5953 2518.97 108.885C2545.89 149.175 2560.26 196.544 2560.26 245C2560.26 309.978 2534.45 372.295 2488.5 418.241C2442.55 464.188 2380.24 490 2315.26 490V490ZM2315.26 404.779C2382.92 404.779 2437.76 347.292 2437.76 276.36C2437.76 236.69 2409.01 182.96 2351.52 115.17C2344.19 106.48 2332.1 92.9172 2315.26 74.4801C2297.53 93.8841 2284.82 108.146 2277.14 117.267C2220.88 184.129 2192.76 237.16 2192.76 276.36C2192.76 347.292 2247.6 404.779 2315.26 404.779Z" fill="#fff" class="svg-elem-5"></path>
					</g>
					<defs>
					<filter id="filter0_b_47_473" x="-100" y="-100" width="2211.86" height="690" filterUnits="userSpaceOnUse" color-interpolation-filters="sRGB">
					<feFlood flood-opacity="0" result="BackgroundImageFix"></feFlood>
					<feGaussianBlur in="BackgroundImageFix" stdDeviation="50"></feGaussianBlur>
					<feComposite in2="SourceAlpha" operator="in" result="effect1_backgroundBlur_47_473"></feComposite>
					<feBlend mode="normal" in="SourceGraphic" in2="effect1_backgroundBlur_47_473" result="shape"></feBlend>
					</filter>
					<filter id="filter1_b_47_473" x="1970.26" y="-100" width="690" height="690" filterUnits="userSpaceOnUse" color-interpolation-filters="sRGB">
					<feFlood flood-opacity="0" result="BackgroundImageFix"></feFlood>
					<feGaussianBlur in="BackgroundImageFix" stdDeviation="50"></feGaussianBlur>
					<feComposite in2="SourceAlpha" operator="in" result="effect1_backgroundBlur_47_473"></feComposite>
					<feBlend mode="normal" in="SourceGraphic" in2="effect1_backgroundBlur_47_473" result="shape"></feBlend>
					</filter>
					</defs>
					</svg>
